packages/radix-icons/twoTone/15/button.svg

<svg width="15" height="15" fill="none" xmlns="http://www.w3.org/2000/svg">
  <path
    fill-rule="evenodd"
    clip-rule="evenodd"
    d="M3 4C1.89543 4 1 4.89543 1 6V9C1 10.1046 1.89543 11 3 11H12C13.1046 11 14 10.1046 14 9V6C14 4.89543 13.1046 4 12 4H3Z"
    fill="currentColor"
    opacity=".2"
  />
  <path
    fill-rule="evenodd"
    clip-rule="evenodd"
    d="M3 5H12C12.5523 5 13 5.44772 13 6V9C13 9.55228 12.5523 10 12 10H3C2.44772 10 2 9.55228 2 9V6C2 5.44772 2.44772 5 3 5ZM1 6C1 4.89543 1.89543 4 3 4H12C13.1046 4 14 4.89543 14 6V9C14 10.1046 13.1046 11 12 11H3C1.89543 11 1 10.1046 1 9V6ZM4.5 7C4.22386 7 4 7.22386 4 7.5C4 7.77614 4.22386 8 4.5 8H10.5C10.7761 8 11 7.77614 11 7.5C11 7.22386 10.7761 7 10.5 7H4.5Z"
    fill="currentColor"
  />
</svg>

<svg width="15" height="15" fill="none" xmlns="http://www.w3.org/2000/svg">
  <path
    fill-rule="evenodd"
    clip-rule="evenodd"
    d="M3 4a2 2 0 00-2 2v3a2 2 0 002 2h9a2 2 0 002-2V6a2 2 0 00-2-2H3z"
    fill="currentColor"
    opacity=".2"
  />
  <path
    fill-rule="evenodd"
    clip-rule="evenodd"
    d="M3 5h9a1 1 0 011 1v3a1 1 0 01-1 1H3a1 1 0 01-1-1V6a1 1 0 011-1zM1 6a2 2 0 012-2h9a2 2 0 012 2v3a2 2 0 01-2 2H3a2 2 0 01-2-2V6zm3.5 1a.5.5 0 000 1h6a.5.5 0 000-1h-6z"
    fill="currentColor"
  />
</svg>
